X:1
T:Arabian march
T:Arabian march
T:J. Zundel
T:Zundel, J. Arabian March. P. K. Weizel, Brooklyn, NY, monographic, 1854. Notated Music. Retrieved from the Library of Congress, &lt;www.loc.gov/item/sm1854.721240/&gt;.
T:Zundel, J. Arabian March. P. K. Weizel, Brooklyn, NY, monographic, 1854. Notated Music. Retrieved from the Library of Congress, &lt;www.loc.gov/item/sm1854.721240/&gt;.
Z:Zundel, J. Arabian March. P. K. Weizel, Brooklyn, NY, monographic, 1854. Notated Music. Retrieved from the Library of Congress, <www.loc.gov/item/sm1854.721240/>.
%%score { ( 1 3 ) | 2 }
L:1/8
M:4/4
K:F
V:1 treble nm="Piano" snm="Pno."
V:3 treble 
V:2 bass 
V:1
!ff! (3[cc'][cc'][cc'] | .[Aa]2 .[Ff]2 .[Cc]2 (3[cc'][cc'][cc'] | .[Aa]2 .[Ff]2 .[Cc]2 (A,>B, | %3
 [A,C]2) (D>E [A,F]2) [B,G]>[CA] | ((!>![DB]4 [CA]2)) [ca]>[ca] | %5
 [ca]2 [Bg]>[A^f] [Bg]2 [ca]>[Bg] | [Bg]2 [Af]>[Ge] [Af]2 !1!g>!2!f |1 %7
 e>g[cc']>[ed'] [ee']2 [dd']>[ee'] | [cc']2 [cc']>[cc'] [cc']2 :|2 %9
 e>[Ff][Gg]>[Aa] [Bb]>[cc'][dd']>[ee'] | [ff']2 [ff']>[ff'] [ff']2 z2!fine! |]: %11
 [Gce]2 [Gce]2 [Gce]2 [Gce]2 | .[Ac^d^f]2 .[Gceg]2 .[Acda]2 .[Gcg]2 | [G=Bf]2 [GBf]>e [GBd]4 | %14
 [Gce]2 [Gce]>d [Gc]4 | [Ace]2 [Ace]4 [Gcg]2 | [Ac^d^f]2 [Gceg]2 [Acda]2 [Gcg]2 | %17
 [G=Bf]2 f>e d2 e>d |1 [Gc]2 [egc']>[egc'] [egc'].G.c.d :|2 [Gc]2 [EGc]>!arpeggio![EGc] [EGc]2 || %20
 (3[cc'][cc'][cc'] | .[Aa]2 .[Ff]2 .[Cc]2 (3[cc'][cc'][cc'] | .[Aa]2 .[Ff]2 .[Cc]2 (A,>B, | %23
 [A,C]2) (D>E [A,F]2) [B,G]>[CA] | ((!>![DB]4 [CA]2)) [ca]>[ca] | %25
 [ca]2 [Bg]>[A^f] [Bg]2 [ca]>[Bg] | [Bg]2 [Af]>[Ge] [Af]2 g>f | %27
 e>[Ff][Gg]>[Aa] [Bb]>[cc'][dd']>[ee'] | [ff']2 [ff']>[ff'] [ff']2 |] %29
[K:Bb]"^TRIO"[I:staff +1] F,>F, | F,2 F,>F, F,2[I:staff -1] B,>[A,C] | [B,D]6 [B,D]>[EG] | %32
 [DF]2 [B,D]>[EG] [DF]2 [B,D]>[EG] | [DF]6 D>D | F2 E>D C2 D>E | [B,F]2 D>C B,2 D>=E | %36
 .!^![A,DF]2 .!^![A,DF]2 .!^![A,DF]2 .!^![A,DF]2 | [F,A,D]6 F>F | [DF]2 F>F [DF]2 B>c | %39
 [DBd]6 [Bd]>[Geg] | [Fdf]2 [Bd]>[Geg] [Fdf]2 [Bd]>[Geg] | [Fdf]6 d>d | f2 [Fe]>d [Fc]2 d>e | %43
 [FBf]2 d>c B2 FF/ z/ | F>BB>c [Fd]2 [Fc]>d | B2 [Bb]>[Bb] [Bb]2!D.C.! :| %46
V:2
 z2 | [F,,F,]2 [F,A,C]2 [F,A,]2 z2 | [F,,F,]2 [F,A,C]2 [F,A,]2 z2 | %3
 [F,,F,]2 [F,,F,]2 [F,,F,]2 [F,,F,]2 | [F,,F,]2 [F,,F,]2 [F,,F,]2 z2 | %5
 [C,,C,]2 [C,G,C]2 [C,G,C]2 z2 | [F,,F,]2 [F,A,C]2 [F,A,C]2 [F,A,C]2 |1 %7
 [G,,G,]2 [G,CE]2 [G,CE]2 [G,=B,F]2 | [CE]2 [C,E,G,C]2 [C,E,G,C]2 :|2 %9
 [C,,C,]2 [D,B,C]2 [D,B,C]2 [D,B,C]2 | [F,A,C]2 [F,A,C]2 [F,A,C]2 z2 |]: %11
 [C,C]2 (3([G,CE][G,CE][G,CE]) [C,C]2 (3([G,CE][G,CE][G,CE]) | [C,C]2 [G,CE]2 [C,C]2 [G,CE]2 | %13
 [G,,G,]2 [G,=B,DF]2 [G,B,DF]2 [G,B,DF]2 | [C,C]2 [G,CE]2 [G,CE]2 [G,CE]2 | %15
 [C,C]2 (3[G,CE][G,CE][G,CE] [C,C]2 (3[G,CE][G,CE][G,CE] | [C,C]2 [G,CE]2 [C,C]2 [G,CE]2 | %17
 [G,,G,]2 [G,=B,DF]2 [G,B,DF]2 [G,B,DF]2 |1 [CE]2 [C,G,C]2 [C,G,C]2 z2 :|2 %19
 [CE]2 [C,G,C]2 [C,G,C]2 || z2 | [F,,F,]2 [F,A,C]2 [F,A,]2 z2 | [F,,F,]2 [F,A,C]2 [F,A,]2 z2 | %23
 [F,,F,]2 [F,,F,]2 [F,,F,]2 [F,,F,]2 | [F,,F,]2 [F,,F,]2 [F,,F,]2 z2 | %25
 [C,,C,]2 [C,G,C]2 [C,G,C]2 z2 | [F,,F,]2 [F,A,C]2 [F,A,C]2 [F,A,C]2 | %27
 [C,,C,]2 [D,B,C]2 [D,B,C]2 [D,B,C]2 | [F,A,C]2 [F,A,C]2 [F,A,C]2 |][K:Bb] z2 | %30
 [B,,,B,,]2 [B,,D,]2 [B,,D,]2 [B,,D,]2 | [B,,,B,,]2 [B,,F,]>[B,,F,] [B,,F,]2 z2 | %32
 [B,,,B,,]2 [B,,F,]2 [B,,,B,,]2 [B,,F,]2 | [B,,,B,,]2 [B,,F,]>[B,,F,] [B,,F,]2 z2 | %34
 [F,,C,F,]2 [F,,C,F,]2 [F,,C,F,]2 z2 | [B,,,B,,]2 [B,,F,]2 [B,,F,]2 z2 | %36
 [A,,,A,,]2 [A,,,A,,]2 [A,,,A,,]2 [A,,,A,,]2 | [D,,D,]2 [D,,D,]>[D,,D,] [D,,D,]2 F,2 | %38
 .[B,,B,]2 .F,2 .[B,,B,]2 .F,2 | [B,,C]2 z2 [B,,B,]2 F,2 | .[B,,B,]2 .F,2 .[B,,B,]2 .F,2 | %41
 [B,,C]2 F,>F, [B,,B,]2 z2 | [F,,F,]2 [F,A,CE]2 [F,A,CE]2 z2 | [B,,B,]2 [F,B,D]2 [F,B,D]2 z2 | %44
 [F,B,D]2 [F,B,D]2 [F,B,D]2 [F,B,D]2 | [B,D]2 [B,,D,F,B,]2 [B,,D,F,B,]2 :| %46
V:3
 x2 | x8 | x8 | x2 B,2 x4 | x8 | x8 | x8 |1 x8 | x6 :|2 x8 | x8 |]: x8 | x8 | x8 | x8 | x8 | x8 | %17
 x2 [G=B]2 [GB]2 [GB]2 |1 x8 :|2 x6 || x2 | x8 | x8 | x2 B,2 x4 | x8 | x8 | x8 | x8 | x6 |] %29
[K:Bb] x2 | x8 | x8 | x8 | x8 | A,2 A,2 A,2 x2 | x8 | x8 | x8 | x6 D2 | x8 | x8 | x6 [FB]2 | %42
 [FA]2 x6 | x8 | x8 | x6 :| %46

